src/vlite/svg/fullscreen-exit.svg

<svg version="1.1" xmlns="http://www.w3.org/2000/svg" viewBox="0 0 32 32"><path d="M24.586 27.414l4.586 4.586 2.828-2.828-4.586-4.586 4.586-4.586h-12v12zM0 12h12v-12l-4.586 4.586-4.539-4.543-2.828 2.828 4.539 4.543zM0 29.172l2.828 2.828 4.586-4.586 4.586 4.586v-12h-12l4.586 4.586zM20 12h12l-4.586-4.586 4.547-4.543-2.828-2.828-4.547 4.543-4.586-4.586z"></path></svg>

<svg xmlns="http://www.w3.org/2000/svg" viewBox="0 0 32 32"><path d="M24.586 27.414L29.172 32 32 29.172l-4.586-4.586L32 20H20v12zM0 12h12V0L7.414 4.586 2.875.043.047 2.871l4.539 4.543zm0 17.172L2.828 32l4.586-4.586L12 32V20H0l4.586 4.586zM20 12h12l-4.586-4.586 4.547-4.543L29.133.043l-4.547 4.543L20 0z"/></svg>
